/* XPM */
static char *_b044717740643cbaff92167726763f05ktq8Wmwx6PYyWxg[] = {
/* columns rows colors chars-per-pixel */
"128 128 255 2 ",
"   c #040317",
".  c #130C10",
"X  c #280A04",
"o  c #380C02",
"O  c #3A1308",
"+  c #271619",
"@  c #371B16",
"#  c #2A110C",
"$  c #36221A",
"%  c #0E1229",
"&  c #271C25",
"*  c #351E25",
"=  c #29242A",
"-  c #382627",
";  c #322F35",
":  c #1C2631",
">  c #481808",
",  c #551B07",
"<  c #461C15",
"1  c #50170D",
"2  c #59230A",
"3  c #4A2319",
"4  c #572717",
"5  c #4C2007",
"6  c #662B15",
"7  c #6A331A",
"8  c #77371A",
"9  c #6B2B0D",
"0  c #472724",
"q  c #572C24",
"w  c #593427",
"e  c #4C3635",
"r  c #683726",
"t  c #783A25",
"y  c #67382E",
"u  c #431F20",
"i  c #50433C",
"p  c #7B4327",
"a  c #774837",
"s  c #6A4739",
"d  c #7C431A",
"f  c #0C2A57",
"g  c #303649",
"h  c #0C3068",
"j  c #081D4C",
"k  c #4C3B42",
"l  c #364454",
"z  c #14507B",
"x  c #315576",
"c  c #3E627C",
"v  c #504B4F",
"b  c #6D534E",
"n  c #6F6659",
"m  c #4D5669",
"M  c #4F6579",
"N  c #726E6F",
"B  c #6A5D64",
"V  c #843C16",
"C  c #853C23",
"Z  c #8F461B",
"A  c #884727",
"S  c #964B28",
"D  c #9A542B",
"F  c #884C36",
"G  c #8A5239",
"H  c #985737",
"J  c #954E34",
"K  c #A75829",
"L  c #A75A35",
"P  c #B45C37",
"I  c #B45B29",
"U  c #A86439",
"Y  c #BD6A3C",
"T  c #B76638",
"R  c #B96A33",
"E  c #A05727",
"W  c #C36C3C",
"Q  c #C4673A",
"!  c #C6743C",
"~  c #885746",
"^  c #985B45",
"/  c #885B52",
"(  c #AA5D45",
")  c #B35F43",
"_  c #9A6448",
"`  c #986857",
"'  c #8C695B",
"]  c #A96648",
"[  c #B76946",
"{  c #B97548",
"}  c #A96B56",
"|  c #B56B54",
" . c #AA7259",
".. c #BA7756",
"X. c #AC7249",
"o. c #8D746D",
"O. c #A87767",
"+. c #B87965",
"@. c #A7756D",
"#. c #C36C43",
"$. c #C86B46",
"%. c #C47343",
"&. c #CC7444",
"*. c #C97949",
"=. c #D47C4B",
"-. c #D37847",
";. c #C87B55",
":. c #D47C54",
">. c #CF6E4B",
",. c #C67B63",
"<. c #8C8475",
"1. c #948979",
"2. c #B38773",
"3. c #BB8357",
"4. c #CB824B",
"5. c #D6844D",
"6. c #CC8353",
"7. c #C98758",
"8. c #D48453",
"9. c #DB8453",
"0. c #DB8B54",
"q. c #D4845B",
"w. c #DC8C5C",
"e. c #D6895A",
"r. c #DB935A",
"t. c #CC9052",
"y. c #E28B59",
"u. c #E3945C",
"i. c #C98667",
"p. c #D88B65",
"a. c #DA9568",
"s. c #D99775",
"d. c #CC8E73",
"f. c #E39364",
"g. c #E79968",
"h. c #E59B75",
"j. c #E99367",
"k. c #DAA477",
"l. c #EBA36A",
"z. c #F2A56C",
"x. c #E9A678",
"c. c #F5AA78",
"v. c #F6B37B",
"b. c #EEB178",
"n. c #1D5985",
"m. c #1B5785",
"M. c #235D8B",
"N. c #285C87",
"B. c #335D87",
"V. c #26618D",
"C. c #2C628D",
"Z. c #2C6289",
"A. c #33648D",
"S. c #3A6689",
"D. c #2B6593",
"F. c #2B6794",
"G. c #326691",
"H. c #346A95",
"J. c #3A6B94",
"K. c #336C9A",
"L. c #3B6E9A",
"P. c #376797",
"I. c #3B719C",
"U. c #35709D",
"Y. c #466888",
"T. c #436E97",
"R. c #47739A",
"E. c #55799A",
"W. c #576E85",
"Q. c #6F7A89",
"!. c #4777A3",
"~. c #547DA2",
"^. c #405E86",
"/. c #887E82",
"(. c #6A839B",
"). c #788695",
"_. c #5A82A5",
"`. c #6686A6",
"'. c #778FA8",
"]. c #7EA5BE",
"[. c #7DA8BB",
"{. c #5A819C",
"}. c #7DA4C1",
"|. c #9A9696",
" X c #908C8B",
".X c #B6978A",
"XX c #A69A96",
"oX c #B49B96",
"OX c #A79188",
"+X c #ABA298",
"@X c #B5A79B",
"#X c #BDAC96",
"$X c #989CA6",
"%X c #8798AA",
"&X c #A89DA5",
"*X c #9BA4AC",
"=X c #82A5BF",
"-X c #89A7BE",
";X c #83A8BE",
":X c #8DA9BE",
">X c #8CA3B6",
",X c #9DABB5",
"<X c #94ACBD",
"1X c #9BADBD",
"2X c #98A5B4",
"3X c #9DB1BC",
"4X c #99B1B9",
"5X c #A7A7AA",
"6X c #B6A8A7",
"7X c #BBB2A8",
"8X c #A4ACB4",
"9X c #AAACB4",
"0X c #A4AEBB",
"qX c #AAADBB",
"wX c #A4A7B4",
"eX c #B4ADB5",
"rX c #A4B0BB",
"tX c #AAB1BB",
"yX c #A9B1B4",
"uX c #B6B4B8",
"iX c #D09983",
"pX c #D3A98C",
"aX c #E9A985",
"sX c #F5AC85",
"dX c #EAB488",
"fX c #F7B688",
"gX c #F9BA96",
"hX c #EBB295",
"jX c #C4B8AA",
"kX c #C9BCB4",
"lX c #C7B0AE",
"zX c #EAA48D",
"xX c #FDC599",
"cX c #FDC18D",
"vX c #D2C4B9",
"bX c #FDCAA5",
"nX c #FED3A9",
"mX c #FCD7B3",
"MX c #FFE2B7",
"NX c #84A6C1",
"BX c #8AA6C1",
"VX c #8CAAC1",
"CX c #85A9C1",
"ZX c #92ACC2",
"AX c #9BADC1",
"SX c #91A7C8",
"DX c #99B1C2",
"FX c #8FB0C7",
"GX c #A5AFC1",
"HX c #A6B2C2",
"JX c #B2B4C1",
"KX c #E7D7CB",
"LX c #FDEAC9",
"PX c #DED4CE",
"IX c #C8B5C5",
/* pixels */
"].].].].].].].].].].].].].].].}.}.}.}.}.}.}.}.}.}.}.}.}.}.}.}.}.}.].=X=X=X=X=X=X].].].].].].].].=X=X=X=X=X=X=X=XNXNX=X=X=X=X].].=X;X;X=X;XNX;X;X;X;XNXNX=XNX=X=X=X=X;X;X;X;X=X=XNX}.}.].].].].].].].].].].].[.].=X=X=X=X=X=X=X=X].].=X=X].].].].=X=X=X=X=X=X=X=X",
"].].].].].].].].].].].].].].].].}.}.}.}.}.}.}.}.}.}.}.}.}.}.}.}.}.=X=X=X=X=X=X=X].].=X=X=X=X=X=X=X=X=X=X=X=X=X;XNXNX=X=XNXNX=X=XNX;X;X=XVX=X>X-XBX;X=X=XNXNX=X=X=X=X;X;X;X;X=X=XNXNXNXNX=X=X].].].].].].].].[.].=X=X=X=X=X=X=X=X].].=X=X].].].].=X=X=X=X=X=X=X=X",
"].].].].}.}.}.}.}.}.}.}.].].].].}.}.}.}.}.}.}.}.}.}.}.}.}.}.}.}.}.=X=X=X=X=X=X=X].].].].=X=X=X=XNXNXNXNXNXNXNXNX=X=X=X=XNXNX;X=X=X;X=X>X%X'.%X>X>X>XBXNXNXNXNX;XNX;X;X;X;X;X;X;XNXNXNXNXNXNXNXNX].].].].].].].].=X=X=X=X=X=X=X=X].].].].].].].].=X=X=X=X=X=X=X=X",
"].].].].}.}.}.}.}.}.}.}.].].].].].}.}.}.}.}.}.}.}.}.}.NXNXNXNXNXNX=X=X=X=X=X=X=X].].].].=X=X=X=XNXNXNXNXNXNXNXNX=X=X=X=XNX=X=X=X-X>X>X>X).M m M %X>X-XSXBXCXCXCXNXNXNXNX;X;XNXNXNXNXNXNXNXNXNXNX;X=X=X=X=X=X=X=X=X=X=X=X=X=X=X=X].].].].].].].].=X=X=X=X=X=X=X=X",
"}.}.}.}.}.}.}.}.}.}.}.}.}.}.}.}.}.}.}.NXNXNXNXNXNXNXNXNXNXNXNXNXNXNXNXNXNXNXNXNXNXNXNXNXNXNXNXNXNXNXNXNXNXNX=X=XNX].=XCXCX-X;X-X>X>XQ.W.N B m g v m Q.>XAXZX-XCXNXNXNXNXNXNXNXNXCXBXBXBXBXBXBXCX;X=X=X=X=X=X=X=XNXNXNXNXNXNXNXNXNXNXNXNX=X=X=X=X=X=X=X=X=X=X=X=X",
"}.}.}.}.}.}.}.}.}.}.}.}.}.}.}.}.}.}.NXNXNXNXNXNXNXNXNXNXNXNXNXNXNXNXNXNXNXNXNXNXNXNXNXNXNXNXNXNXNXNXNXNXNXNX=X=XCX-X;XBXBX-X-X:X%Xm : g k ; - = ; v m Q.$X2X>XVX-XNXNXNXNXNXBXBXBXBXBXBXBXBXBXBXCX;X=X=X=X=XNXNXNXNXNXNXNXNXNXNXNXNXNXNX=X=X=X=X=X=X=X=X=X=X=X=X",
"].].].].].].].].}.}.}.}.}.}.}.}.}.[.[.[.;X;X;X=XNXNXNXNX;X;X;X;XNXNXNXNXNXNXNXNXNXNXNXNXNXNXNXNXNXNXNXNXNXNXNXNXBX:XVX:X>XQ.x l g % % = = + + - - v B B B  X2XAX-XNXNXNXBXBXBXBXBXBXBXBXBXBXBXBXCXCXNX;XNXNXNXNXNXNXNXNXNXNXNXNXNXNXNXNX=X=X=X=X=X=X=X=X=X=X=X=X",
"=X=X=X=X=X=X=X=X].].].].].].].].NX=X=X[.;X;X=X=XNXNXNXNX=X=X;X;XNXNXNXNXNX=X=X=X=XNXNXNXNXNXNXNXNXNXNXNXNXNXNXNX=X'.'.W.g % % % % % % % = & + - e n n b n v N %X>X>X-XBXBXBX-X-XBXBXBXBXBXBXBXBXBXCXCXNXNXNXNXNXNXNXNXNXNXNXNXNXNXNXNXNX=X=X=X=X=X=X=X=X=X=X=X=X",
"=X=X=X=X=X=X=X=X].[.].].].].[.].NXNXNXNXNXNX;X;XNXBXBXBXBXBXNXNXBXBXBXNXNX-X-X-X-XNXNXNXNXNXCXNXNXNXNXNXNXNXCXBXBX%XQ.m g % % . . . & = = ; * * e b n n n n k v N %X:XBXBXBX:X:XBXBXBXBXBXBXBXBXBX-X-X-X-X-X-X-X-XBXBXBXBXBXBXNXNXNXNXNXNXNXNXNX;X;X;X;X;X;X;X;X",
"=X=X=X=X=X=X=X=X[.[.[.[.[.[.[.[.NXNXNXNXNXNX;X;X-XBXBXBXBXBXBXCXBXBXBXBX-X-X-X-X-X-X:X-X-X-X-X-XNXNXNXNXNXCXCXBX>X'.g ; ; & & & ; & . = = e v i b e b e e b i e v m %XZXCXCX:X:XBXBXBXBXBXBXBXBX-X-X-X-X-X-X-X-X-X-X-X-X-X-X-X-XNXNXNXNXNXNXNXNX;X;X;X;X;X;X;X;X",
"NXNXNXNX;X;X;X=X=X;X;X;X;X;X;X;XNXNX;X;X;X;X;X;X-X-XBXBXBXBXBXCXNXNXNXNX-X-X-X-X-X-X:X:X-X-X:X:XBXBXBXBXCXVXBX>X'.m % & & - e v b ; - - - $ v e - $ e & = ; = ; v B N <XZXVXVXVXVXBXBXBXBXBXBXBX-X-X-X-X-X-X:X:X-X-X-X-X-X-X-X-XNXNXNXNXNXNX;XNX;X;X;X;X;X;X;X;X",
"NXNXNXNX;X;X;X=X=X=X;X;X;X;X;X;X;X;X-X-X;X;X;X;X>X>X2X2X<X<X>X:X>X-X-X-X-X-X-X-X-X:X:X:X-X-X-X:XBXBXBXCXCXVXBX>X%Xg . + # - e e e i i $ - - e @ # # # . . . . + ; v v %XZXVXVXVXVXBXBXBXBXBXBXBX-X-X-X-X-X-X:X:X-X-X-X-X-X-X-X-XNXNXNXNXNXNXNXNX=X=X;X;X;X;X;X;X",
"NXNXNXNX;X;X;X;X=X=X=X=X;X;X;X;X-X-X;XNXBXCXBX:X2X*X5X5X5X5X*X*X2X2X<X<X:XBXBXBXBXBXVXVXBXBXBXBX:X:XBXBX:X-XVX>X).: + @ w n $ # @ w y s s ' lXb @ O $ # . . . + + v v N DXZXVXFXVXBXBXBXBXBXBXBXBXBXBXBX:XBX:X:XBX:XBXBXBX-X-X-XNXNXNXNXNXNXNXNXNXNXNXNXNXNXNXNX",
"NXNXNXNX;X;X;X;X;X;X;X;X;X;X;X-X-X-XBXBXVX:X2X*X5X+X.X.X.X.X+X+X5X5X5X,X2X<X:XBXBXBXVXVXBXBXBXBX:X:XBXBXBXVXVX>XQ.& 0 s / ~ 0 X > a b b ` 2.LXmX2.a b 1.i X + e + - k v 2XZXVXVXVXVXBXBXBXBXBXBXBXBXBXBXBXBX:X:X:X:X:XBXBXBXBX-XNXNXNXNXNXNXNXNXNXNXNXNXNXNXNXNX",
"BXBXBXNXNXNXNXNX-X-X-X-X-X-X-X-XBXBXBXBX2XwX6X#XpXpXpXk.k.k.iXiX.X.XoXXX5X,X,X<XVXBXVXVXVXVXVXVXVXVXVXVXVXBXFX:Xm - s O. .d.~ o 6 +.2.2.a a bXbXhXiX2.O.2.w - v + - = g Q.<XZXVXVXVXBXBXBXBXBXBXBXBXBXBXBXBXBXBXBXBXBXBXBXBXBXBXNXNXBXBXNXNXNXNXBXBXBXBXNXNXNXNX",
"BXBXBXBXBXBXBXBX-X-X-X-X-X-X-X-XBXBXBX<X5X6XpXhXhXdXdXdXdXdXdXdXhXhXpXpX@X+X5X,X:XBXVXVXVXVXVXVXVXVXVXVXBXVXZXQ.; 0 ~ +.i.s.iX+. .d.iXhX} 2 2.bXhXh.d.i.O.b $ e & = = ; N <X<XVXVXVXVXBXBXBXBXBXBXBXBXBXBXBXBXBXBXBXBXBXBXBXBXBX-XBXBXBXBXBXBXBXBXBXBXBXBXBXBXBX",
"-X-X-X-XBX-X-X-X-X-X-X-X:X:X:X:XBX:X:X*X+XpXhXfXfXfXfXfXfXfXfXfXfXfXgXdXpXpX@X5X<XVXVXVXZXZXZXVXVXVXVXVX:XZX'.: = e / +.,.s.zXzXhXzXs.zXiXa 4 d.aXp.p.,._ s - + & & & ; M 1XZXVXVXZXVXVXVXVXVXVXVXVXVXVXVXVXVXVX:X:X:X:X:X:X:X:X:XBXBXBXBXBXBXBXBX-X-X-X-X-XBXBX",
"-X-X-X-XBXBX-X-X-X-X:X:X:X:X:X:X:X:X<X5X#XpXaXsXfXfXfXfXfXfXfXfXfXfXfXb.i.k.2.+X2XVX:X:XZXZXZXZXVXVXZXZXZXZXM % + + / +.i.s.zXsXgXgXaXiXhXhX} G s.p.p.i.F 3 X . . & & ; M AX:XZXZXVXZXVXVXVXVXVXVXVXVXVXVXVXVXVX:X:X:X:X:X:X:X:X:X:X:X:X:X:X:X:X:X:X:X-X:X:X:X:X",
"-X-X-X-XBXBXBX-X:X:X:X:X:X:X:X:X:X<X2X5XpXdXx.x.fXfXfXfXfXfXfXfXfXb.x.a.X.d.2.OX*X<X<XZXZXZXZXZXZXZXZXZXZXZXM . . + b +.,.p.h.h.gXxXfXh.gXgXaXs.s.s.h.s._ o X . . + + = m 1X<X:XZXZXVXZXZXZXVXVXVXVXVXVXVXVXVXVX:X:X:X:X:X:X:X:XVXVXVXVXZXZXVXVXVX:X:X:X:X:X:X:X",
"-X-X-X-XBXBXBXBX:X:X:X:X:X:X:X:XZX2X5XoXhXdXk.b.cXfXfXfXv.fXfXfXa.a.h.a.X.i.pX.X5X,X<X<XZXZXZXZXZXZXZXZXVXDXM % = * b } ;.i.p.s.fXgXsXh.aXaXiXiXiXiXzXs. .r @ # . & . & = %X<X:XZXZXZXZXVXZXVXVXVXVXVXVXVXVXVX:X:X:X:X:X:X:X:X:XZXZXZXZXZXZXZXZXVXVXVX:X:X:X:X:X",
"VXVXVXVXVXVXVXVXZXVXVXVXVXVXVX<X<X*X5XpXhXdXi.k.fXfXdXfXfXb.x.a.7.p.h.a.X.i.pXiX5X,X<X<XZXZXZXZXZXZXZXZXZXZX).; ; + b O.i.i.d.i.a.a.h.s.p.+.] +.i.s.d.i.+.` / w + + = ; % v >X:XZXZXZXZXZXZXVXVXVXZXZXZXZXZXZXZXVXVX:X:XVXVXVXVXZXZXZXZXZXZXZXZXVXVX:X:X:X:X:X:X",
"VXVXVXVXVXVXVXVXZXZXVXVXVXVXVX<X,X5XoXpXhXk.X.3.dXx.x.g.x.a.7.7.7.7.b.x.{ d.x.iXXX8X<X<XZXZXZX<X<XZXZXZXZX<X).v + # / 2.+.} ^ A H ..p.p.] t 2 2 6 t C t t ^ O.o.+ . . . = = M <XZXZXZXZXZXZXVXVX:X<X<X<X<X<X:X<XVXVX:X:XVXVXVXVXZXZXZXZXZXZXZXZXVXVXVX:X:X:X:X:X",
"VXVXVXVXVXVXVXVXZXZXVXVXVXVXVX<X*X+X.XpXpXk.H p a.fXb.e.3.{ 6.e.a.7.v.a.a.s.dXpXOX5X1XZXZXZXZX1XZXZXZXZXZXZX%Xl ; + s a y r 4 4 9 A i.iX] 7 , , , , 6 7 ~ _  .O.b +   . & v %XDX<XZXZXZXZX<X<X<X<X<X:X:X:X:X:X:XVXVXZXVXVXVXVXVXZXZXZXZXZXZXZXZXVXVXVXVXVXVXVXVX",
"VXVXVXVXVXVXVXVXZXVXVXVXVXZX<X,X5XOXd.dXk.3._ 2 p a.a.a.{ D 6.a.t.e.c.a.7.d.dXpX1.9X0XZXZXZXZX<XZXZXZXZXZXAX2X: . . 0 4 y 4 o > , A s.hX,.^ ^ } +.} ^ F ^ } +.O.' + . . - v *X<X<XDXDXZXZX<X<X<X<X<X<X<X<X<X<X<X<XZXZXZXZXZXZXZXZXZXZXZXZXZXZXZXZXZXZXVXVXVXVXVX",
"ZXZXZXZXZXZXZX<X:X:X:XVXZXZX<X9X+X2.pXhXi.} a 5 > 4  .d.7.U 7.k.4.e.x.i.] X.pXpXo.qX0XAXZXFXZXZXZXZXZXZXZX<X<Xl % + e 3 > r ^ +.i.;.p.sXi.s.s.pXs.s.s.aXaXs.i.+.` 0 . + v /.5X1XZXZXZXZXZXZXZXZX<X<X<X<X<X<X<X<X<X<X<X<X<X<X<XZXZXZXZXZX<XZXZXZXZXZXZXZXZXZXZXZX",
"ZXZXZXZXZXZXZXZX:X:X<X<X<X<X8X+X2.iXaXs.i.] 7 4 < <  .2...X.3.7.U 7.k.d.a 7 ` o./.0X1XGXZXZXFXZXZXZXZXZXDXZXZX).: ; e w r _ ..d.h.;.p.fXp.f.h.gXbXbXfXx.h.a.i.+.O.3 X $ / OX9X1XAXZXAXAXZXZXZXZX<X<X<X<X<X<X<X<X<X<X<X<X<X<X<X<XZXZXZXZX<X<XZXZXZXZXZXZXZXZXZXZX",
"ZXZXZXZXZXZXZXZXZX<X<X<X<X,X5X.X2.pXx.a.;.L p O.< 0 ' / ` _ ` _ a ~ d.@.w 0 N |.wX,XGXAXAXZXZXZXZXZXZXZXZXDX<X>Xg - ' 2.d.d.aXh.h.;.p.x.f.p.s.gXnXbXfXh.a.s.i...` s s < y ' $X>X1XZXZX<X<X<X<X<X<X<X<X<X<X<X<X<XZX<X<X<X<X<X<X<X<X<X<X<X<X<X<X<XZXZXZXZX<X<X<X<X",
"ZXZXZXZXZXZXZXZXZX<X<X<X<X5XoX2.pXx.a.a.a.....O.@ e OXb n s n s s w q 0 @ B 9X8X,X0X1X<XAXZXZX<X<XZXZXZXDXZXZX<X).- ' O.i.a.x.x.i.%.p.g.p.q.p.aXgXgXfXx.a.d.+.} ` s ` ~ @.b  X).1XZXZX<X<X<X<X<X<X<X<X<X<X<X<X<XZX<X<X<X<X<X<X<X<X<X<X<X<X<X<X<X<XZXZXZX<X<X<X<X",
"ZXZXZXZXZXZXZXZX<X<X<X,X5X+X.Xs.aXk.a.v.x.p.] ` - B uXeX X|.5X|.XXb @ @ - N tX4X,X1XAXAXAXZX<X<X<X<X<X<X<X1X1X1X0XB '  .;.p.h.h.i.;.h.sXh.p.p.h.aXx.s.a.s.i.] ^ ~ a 2.pXiXe v '.1X1X1X<X<X<X<X<X<X<X<X<X<X<X<X<XZXZX<X<X<X<X<X<X<X<X<X<X<X<X<X<X<X<X<X<X<X<X<X<X",
"ZXZXZXZXZXZXZXZX<X<X<X,X5X.XiXaXaXx.b.fXx.;.H ` $  XtX8X,X,XrX8X9XN - 0 e  XrX3X1XAXAXAXAX1X<X4X1X<X<X<X<XZXAX1X0X&Xb ` ..p.h.s.[ L | ,.] L ;.h.x.s.p.7.;.X.H G F / iXpXOX+ N AX1X1X1X<X<X<X<X<X<X<X<X<X<X<X<X<XZXZX<X<X<X<X<X<X<X<X<X<X<X<X<X<X<X<X<X<X<X<X<X<X",
"ZXZXZXZXZXZXZX<X<X<X<X5XoXiXaXaXaXb.dXdXs.^ F ~ - *X0X<X3X4X<X1X0X*Xe v N &X0XAXAXAXAXAXAX1X,X,X1X1X1X1XZXAX1X1XAX*Xv ~ ( ,.p.;.H , 2 6 6 C [ h.h.h.a.7.{ U F G ~ y 2.2.k & M AX1X1XZXZX<X<X<X<X<X<X<X<X<X<X<X<XZX<X<X<XZXZXZX<X<X<X<X<X<X<X<X<X<X<X<X<X<X<X<X<X",
"<X<XZXZXZXZX<X<X<X,X,X5X.XpXaXaXaXaXdXk.7.A G y e yX1X<X3XDX<X<X0X0XN v N wXwXGXAXAXAXAXAX1X,X,X1X1X1X<XZXZXZX1X2XwXB y ^ | ;.i.] A t t d.zXs.s.p.a.a.e.{ L F ^ F r 1 O . % M AX1X1X<X<X<X<X<X<X<X<X<X<X<X<X<X<X<XZX<X<XZXZXZXZX<X<X<X<X<X<X<X<X<X<X<X<X<X<X<X<X",
"<X<X<X<XZXZX<X<X,X8X5XoXpXaXaXfXaXx.aXa.X.p a 0 v tX4X3X3X1X1X1X1X1X0X*X0X0X0XAX1X1X1X1X1X1X1X1X1XAXAX1XAXAXAXAXGXqXB e t | i...,.,.d.s.d.i.i.,.;.7.6.e.{ ] H _ F ` a @ % m %X3X1X1X1X1X1X1X1X<X<X<X<X<X<X<X<X<X<X<X<X<X1X<X<X<X<X<X<X<X<X<X<X<X<X<X<X<X<X<X<X<X",
"<X<X<X<XZXAX<X,X8X9XoXiXaXsXfXaXaXaXx.i.H F y < N tX1XAX1X1X1X1XAXAX1X1X1X1X1X1X1X1X1X1X1X1X1X1XAXAX1X1XAXAXAXAX1X0X Xb r } i.( 8 9 C 8 C C 8 8 9 [ p.e.[ ] _ ^ ~ O.@.e m >X,X1X1X1X1X1X1X1X1X1X<X<X<X<X<X<X<X<X<X1X1X<X1X<X<X<X<X<X<X<X<X<X<X<X<X<X<X<X<X<X<X<X",
"<X<X<X<XZX<X<X,X9X6X.Xs.aXsXgXfXaXx.a...H r q u N qX1XHX1X1X1X1XAX1XAX1X1X1X1X1X1X1X1X1X1X1X1X1X1X1X1X1XAXAXAXAXDX0XqX&Xy _ i.] , A } d.+.d.] ( ] a.f.;.U ] ] F ~  .@.v Q.HX,X3XAXAX1X3X1X1X1X1X<X<X<X<X<X<X1X1X1X<X1X1X1X1X<X<X<X<X<X<X<X<X<X<X<X<X<X<X<X<X<X<X",
"<X<X<X<X<X,X,X5X6X.XiXaXsXgXfXfXx.x.i.X.H r 4 0 N 9XrXAX1X1X1X1X1X1X1X1X1X1X1X1X1X1X1X1X1X1X1X1X1X1X1X1XAXAXAXAXAX1X0XeXb a i.s.^ ] +.s.s.iX,.| i.h.p.{ T U ] t F O.` b |.HXAXAXAXAXAXDX1X1X1X1X1X1X1X1X1X1X1X1X1X1X1X1X1X1X<X<X<X<X<X<X<X<X<X<X<X<X<X<X<X<X<X<X",
"1X1X1X<X<X,X,X5XoXiXs.x.dXfXfXfXx.x.7..._ r q 0 b qXrXAX3X0X1X1X1X1X1X1X1X1XAX1X1X1X1X1X1X1X1X1X1X1X1X1X1X1X1XAXAXAX0X9Xb y } d.] H [ ,.,.| ] ..s.h.i.[ [ ( F 7 a 2.` s |.yX3X1X3X3X3X3X1X1X1X1X1X1X1X1X1X1X1X1X1X1X1X1X1X1X1X1X<X<X,X,X<X<X<X<X<X<X<X<X<X<X<X<X",
"1X1X<X<X,X,X5X+XiXs.x.c.dXdXfXgXgXfXs...F 4 q y v 9XrXHX1X0X1X1X1X1X1X1X1X1XAX1X1X1X1X1X1X1X1X1X1X1X1X1X1X1X1X1X1X1X1X9Xo.w y } | L C A S ( ;.i.s.a.;.[ [ J 8 6 G +._ b  XeX0XHX3X3X3X3X1X1X1X1X3X1X1X1X1X1X1XAX1X1X1X1X1X1X1X1X<X<X,X,X<X1X1X<X<X<X<X<X<X<X<X<X",
"1X1X<X<X,X8X5XoXd.h.x.sXfXfXcXxXxXx.i.X.7 4 r s k wX0XHX1X0X0X0X1X1X1X1XAXAXAXAX1X1X3X3X1X1X1X1XAXAXAXAX1X1X1X1X1X,X4X8XeXv q t ] | ..i.aXaXaXh.s.i...[ D 8 2 6 ....H _ 2.6XyXrX3XAXAXAXAXAX1X1X1X1X1X1X1X1X1X1X1X1X1X1X1X1X1X1X1X1X,X,X1X1X1X1X<X<X<X<X<X<X<X<X",
"1X<X<X,X,X9X6X.Xd.x.sXfXfXcXxXxXb.p.X.A 2 r a y e wX0X3X1X0X0X0X1XAX1X1X0X1XAXAX3X3X3X1X1X1X1X1X1XAXAX1X1X1X1X1X,X,X4X1XqX|.e w _ ..d.s.sXsXaXh.a...| L 8 6 , J d.| H d.2..X6XqXrXAX3X3X1XAX1X1X1X1X1X1X1X1X1X1X1X1X1X1X1X1X1X1X1X1X1X,X1X1X1X1X,X,X,X,X,X,X,X,X",
"1X,X,X,X8X6X.Xd.s.h.c.sXfXfXdXb.a...H t t p t y 0 &XHXAX0X0X0X3X3X3XDXAX0X0X1X1X3X0X0X1X1X1X1X1X1X1X1X1X1X1X1X1XrXrX4X4XrX9X X0 ~ ..;.i.p.p.p.s.;.| ^ t 1 4 t d.d.;.[ i.d.2.6X9X0X3X0X0X0X0XGXAX1X0X0X1X1X1X1X1X1X1X1X1X,X,X3X3X1X1X1X1X1X1X1X1X1X1X1X1X1X1X1X1X",
"1X1X1X8X9XoX.Xd.h.l.c.v.v.b.l.a.7.[ H A H t r q 0 &XtXrXGXGXGXrXrX3XAXAX0X0X1X1X1X0X0X0X1X1X1X1X1X1X1X1X1X1X1X1X0X0X3X3X0XtX|.0 q G ^ L J H ( ] ^ J t 1 1 4 } s.p.;.#.a.s.d..X7X9XrX0X8X0X0XGXAX0X0X0X0X1X1X1X1X1X1X1X1X1X,X4X,X1X1X1X1X1X1X1X1X1X1X1X1X1X1X1X1X",
"AXAX1XwXeXoXd.d.h.l.x.c.v.x.a.e.{ [ U J G 7 4 3 - &XtXrX0X0X0X0XrXrXrXrX0X0X0X0X0X0X0X0X0X0X0X0X0X0X0X0X0X0X0X0X0X0X3X3XrX8X5X0 3 4 6 8 6 7 7 7 7 4 , 1 1 C iXh.f.*.;.j.h.d.2..X6XeX9X0X0X0XGX0X0X0X0X0X0X0X1X1X1X1X1X1X1X,X4X,X1X1X1X1X1X1X1X1X1X1X1X1X1X1X1X1X",
"AXAX1XwX6X.Xd.p.h.g.g.l.x.a.t.6.{ [ ] H 7 1 1 3 - XXeXeX5X5X5X6X6X6X9XyXyXrX0X0X0X0X0X0X0X0X0X0X0X0X0X0X0X0X0X0X0X0XrXrX,XtXyXe 0 3 4 2 2 , 1 1 4 > > 1 6 | x.x.j.*.8.g.g.g.s.d..X6XeX9X0X0X0X0X0X0X0X0X0X0X0X0X1X1X1X1X1X,X4X,X1X1X1X1X1X1X1X1X1X1X1X1X1X1X1X1X",
"AXAXGX9XoX2.d.p.f.g.g.a.7.6.%.*.%.{ X.F , 1 6 < @ &X6XoXOX2.2.2.2.2.oX6X9XrXrXrX0X0X0X0X0X0X0X0X0X0X0X0X0X0X0X0X0X0X0X0X0X8X9XN - < < 4 4 1 4 3 3 < < 1 A s.sXsXf.8.f.g.j.f.a.s.d.iXoX6X5XwX8X,X1X1X1X1X0X0X0X0X0X0X1X1X3X3X3X3X3X3X3X3X3X3X3X3X3X3X3X3X3X3XrX3X",
"1X1X0XeXoX2.i.e.a.f.w.6.;.*.*.*.%.{ ] A , 1 , 1 0 lX.X2.d.i.i.d.i.2.O.1.7XtXrX0X0X0X0X0X0X0X0X0X0X0X0X0X0X0X0X0X0X0X0X0X0X8XyX|.e u < 4 4 4 4 < < < > , | g.c.fXc.u.w.u.y.y.w.p.a.d.d..XoX6X5X8X0X0X0X0X0X0X0X0X0X0X4X4X3X3X3X3X3X3X3X3X3X3X3X3X3X3X3X3X3X3X3X3X",
",X0XqXeX2. .3.q.e.w.w.q.e.e.e.7.*.{ J 6 2 4 6 6 r O.3.d.a.g.g.a.a.p.7.O.@XeXqXqX0XqXqXqXqXqXqXqXqXqXqXqXqXqXqX0X0X0X0X0X0X8XyXuXb u 4 4 1 1 1 < > > 1 t p.f.c.fXfXf.w.8.0.5.0.w.p.p.i.i.2.OX6X9XrXrXrXrXrXrXrXrXrXrXrXrX4X3X3X3X3X3X3X3X3X3X3X3X3X3X3X3X3X3X3X3X",
",X8X9X6X@.} { ;.*.e.a.a.e.r.4.*.[ L 8 9 6 A H ] ^ | a.x.z.z.l.f.g.g.7...@.6XeXqXqXqXqXqXqXeXeXeXeXeXeXeXeXeXeX9X9X9XqX0X0XrXyX9Xo.q q < > > O > O > , ( g.z.fXgXc.y.w.9.0.0.0.y.e.w.p.i.d.2.OXoX9XtXrXrXrXrXrXrXrXrXrXrXrX4X3X3X3X0X0X0X0X0X0X3X3X3X3X3X3X3X3X3X",
",XrX5X6X` _ ] ..;.;.7.7.6.;.{ { U Z 8 8 A L { [ *.p.x.c.c.c.c.b.x.x.e...3.2.6XeXqXqXqXeXeX6XoXoX.XOXOXOXoXoXoXlXlXeXqX0X0XHXrX9X&Xu 0 < O O O O O > 9 ;.f.v.fXc.w.w.=.=.5.9.0.9.q.q.p.p.d.d.d.2.XXuXtXHXGXGXHXGXHXHXtXtXrXrX3X3X3X0X0X0X1X0X0X4X4X4X4X4X4X4X4X4X",
"0X8X5XlX` ] ] X.;.6.;.{ T { Y U S Z V S { ;.;.6.w.z.c.v.v.fXcXxXcXb.a.t.3. .2.6XeX6XXXOX@.@.@.} O. . .O.@.@.@.@.OX6XeXqXrXrX0XtXIXk 0 O O O O O o > J ;.y.j.h.j.9.&.-.-.&.&.&.=.:.:.q.i.i.d.d.d.2.6XeXqXGXHXHXHXHXGXrXrXrX0XrXrX0X0X0X0X0X0X0X0X4X4X4X4X4X4X4X4X",
"rX8X5X@X` _ ^ U ..7.7.{ { { Y K S S [ p.q.6.a.x.f.z.v.v.fXxXnXMXMXdXa.r.r.3. .2.2.@.@.O.O. .} ] | ] ] | ..| ..+.@.@.oXlXuXqXtX&XB e q > > 1 > 2 p H Y W &.=.w.y.u.u.5.&.&.! ! &.9.8.q.q.i.i.i.i.2.OX6XeXGXHXHXHXGXrXrXrXrXrXrXHX0X0X0X0X0X0X0X0XrXrX4X4X4X4XrXrX",
"rX8X5XOX` ^ H L [ 7.a.a.a.a.e.6.7.a.sXfXp.p.xXa.f.l.b.v.fXcXbXnXnXcXl.r.r.7.3. .] ..,.i.i.i.;.;.;.*.{ %.[ [ [ ..,.+.@.OXoX6Xo.e u q q o 1 7 F H L L I I Q -.:.-.=.-.&.W W -.9.9.u.y.w.w.p.p.p.a.d.@.OXlXeXeXqXqXrXrXrXrX4XrX0XrX0X0X0X0X0X0X0X0X0X0X0X0X0X0X0X0X",
"rXtX5Xo.` _ H U U [ 7.e.e.e.6.7.a.x.aXa.7.sXfX7.t.r.l.c.v.fXfXgXxXgXb.l.l.l.a.e.{ ..;.q.p.p.w.e.e.:.;.;.#.#.#.| | } } } @.@.@./ a y 1 > t ] ( P I I I I Q Q >.>.&.I I T -.=.9.y.u.y.j.j.f.f.f.p.p.i.i.2..XOXoX6XeXyXrXrX4XrXrX0XrXrXrXrX0X0X0X0X0X0X0X0X0X0X0X0X",
"rX0X5Xo. .] U S D D L U U { 7.7.a.a.7.{ i.x.aXp.{ t.r.l.x.x.sXsXfXsXc.z.l.l.l.g.g.*.T *.8.w.u.w.8.:.*.*.*.>.#.[ | | | | | ,.,.,.+._ t t ] ( ( P P P Q Q $.Q Q Q K K R ! =.5.9.u.j.j.j.j.j.f.f.y.w.p.p.d.i.2.2.2.+XeXyXrX4XrX0X0XrXrXrXrX0X0X0X0X0X0X0X0X0X0X0X0X",
"rX8XeXo.`  .H 8 8 8 8 S { 7.e.7.4.{ 3.k.xXxXdXa.;.6.r.a.a.g.h.x.x.c.c.c.v.c.l.g.v.6.K W 9.y.y.:.-.:.>.>.$.#.#.[ [ [ [ | >.>.;.;.;...+.} ] ) [ ) Y Q Q Q >.$.&.W R Q ! =.5.9.y.u.g.g.g.g.g.g.g.f.a.a.a.a.a.a.i.2.2.XXeXtXrXrXrXrXrXrXrXrX0X0X0X0X0X0X0X0X0X0X0X0X",
"8X8XtXXX/ 2.i...[ T T { 7.7.e.6.6.7.fXMXMXnXgXh.;.;.6.7.e.r.a.g.g.g.l.z.f.g.l.l.x.a.S T -.=.=.-.>.>.>.>.$.#.[ T ) ) #.$.>.>.>.>.$.| } } [ ) [ [ #.Q #.#.&.>.=.-.&.&.! =.9.9.y.u.g.g.x.c.c.x.g.g.g.a.g.f.a.f.a.d.2.1.6X9XtXrXrXtXrXrXrXrX1X0X0X0X0X0X0X0X0X0X0X0X",
"0X0XqXeXo.` s.x.h.r.e.4.7.6.7.7.x.cXdXfXxXfXx.a.;.{ T { *.%.4.6.r.u.w.*.Y { 6.8.e.*.Z W &.&.>.>.>.>.>.>.$.#.#.[ P ) Y #.>.:.:.>.] ] ] ] ] [ [ [ $.$.$.$.&.&.&.-.&.! &.=.9.8.w.w.z.v.gXgXgXaXx.x.x.a.h.g.f.f.f.i.i.O.@.5XqX0XqXtXtXrX0X0XrXrX,XrX0X0X0X0X0X0X0X0X",
"0X0X0X9X6Xn / i.s.a.e.7.7.6.e.g.fXfXx.a.a.a.a.p.;.U U D U T Y Y *.4.{ U K D L U *.%.K ! &.&.>.>.>.>.>.>.#.Q Y P P Q #.$.>.:.>.[ ] } ] ] ] [ [ [ $.$.$.&.&.&.-.&.-.&.-.=.9.w.w.a.h.dXxXnXbXgXgXgXaXx.x.x.g.j.w.w.p.3.o. X9XtXqX8XtXtX0X0X0XrXrXrX0X0X0X0X0X0X0X0X",
"0X0X0XqXuX6Xi s _ ....7.6.7.w.a.a.a.i.7.7.7.p.a.{ T D Z S D D D U U U U U { { { { { U Y &.&.>.>.>.>.>.$.Q T T P P Y $.=.>.:.#.L ( ( ( ( [ [ [ #.$.>.>.-.&.&.-.=.=.=.=.9.w.f.f.f.h.dXbXmXmXnXnXbXdXdXdXx.x.j.f.p.e.i.O.o.|.qXtX8XrXtX0X0X0XrXrXrX0X0X0X0X0X0X0X0X",
"0X0X0X0XqXeXXXi q a G X...7.7.;.X.X.X.{ ..6.7.6.*.T K S Z A Z Z A D D U H U U { { 7.U T &.&.>.>.>.>.$.Q P P T P P #.>.:.w.#.L L ( ( ( ( [ [ #.$.>.>.-.-.&.=.=.9.9.8.9.w.f.g.z.f.g.sXxXnXnXnXnXbXhXnXbXxXfXh.a.a.e.i. .' o.5XtXrXrXtX0X0X0XrXrXrX0X0X0X0X0X0X0X0X",
"0X0X0X0XqXtXqX5Xb $ 3 w a _ H U X.X...{ ;.6.6.8.4.6.6.6.{ U D S Z Z d 8 9 d U { { e.U K #.>.$.$.>.>.$.$.Q T T T #.#.>.f.q.L L ( ( ( ] [ [ #.#.$.>.-.>.>.&.=.9.9.p.a.f.g.g.g.g.f.f.f.h.fXgXgXgXhXbXLXLXLXbXaXh.a.a.i.} ` ' |.9XrXrXtXrXrX8XrX4XrX0X0X0X0X0X0X0X0X",
"0X0X0X0X0XqX0X9XeX Xe @ 3 3 4 p H X.{ ..7.r.a.l.l.c.l.a.a.a.e.7.[ U U D U { 6.6.{ [ D D T #.$.#.$.$.>.$.Q Q W Y #.#.q.j.:.D L ( ( ( ) [ #.#.>.-.-.-.-.-.-.:.9.y.c.c.x.c.h.g.f.g.u.f.a.g.x.x.x.x.gXMXLXLXbXdXx.a.e.7.] ^ ' o.yX8XrXrXrXrX8X8XrXrX0X0X0X0X0X0X0X0X",
"0X0X0X0X9X9XqXqXqXeX5XN - @ @ > 5 9 8 D ;.a.b.v.v.v.c.l.z.z.l.l.l.r.t.6.6.4.{ U U S Z D L [ >.$.$.$.$.$.Q W #.#.#.*.p.j.*.S L ( ( ( ) [ #.>.-.=.=.=.=.9.9.y.j.j.xXsXsXh.f.f.f.f.w.u.u.f.w.a.f.g.sXbXmXmXbXsXh.w.7.;.] ^ ' o.eXtXtXrXrXrX8X8XrXrX0X0X0X0X0X0X0X0X",
"0X0X0XqX9XwX8XJXqXqXwXeX X- - 3 p G ..a.c.v.c.z.l.l.l.l.l.l.l.l.u.r.e.6.7.*.{ D 9 9 9 S L T #.#.$.W W #.Q W #.&.%.e.p.f.[ D L ( ( ) ) [ #.&.-.=.-.=.5.9.f.j.c.sXsXaXg.f.q.e.w.u.u.0.8.5.8.w.e.f.z.sXsXdXgXaXh.w.7.{ L ] ` ' XXeXqXrXrXrX8X8XrXrX0X0X0X0X0X0X0X0X",
"0X0X0X0X0X0X0X0XqXqXqX9XuXXXe e ` 3.d.s.a.f.a.f.w.r.w.r.0.u.g.u.0.0.6.6.;...X.F 6 > 2 A D T [ [ Y W W W Q #.%.&.e.f.g.q.L L L L L P [ >.-.=.=.=.y.0.w.f.x.gXgXaXs.p.:.e.*.*.e.e.0.8.=.-.=.=.8.w.g.z.x.x.c.z.f.9.*.{ [ ] ] O.1.6XtXqXrXrXrXrXrXrXrXrXrXrX0X0X0X0X",
"0X0X0X0X0X0X0X0XqXqX0X9X9XeX&Xb w a ^ _ ..;.7.q.;.6.7.7.6.6.t.e.t.6.{ { ] ] H t 4 > > 8 S L T [ Y Y W W Y #.&.>.j.j.x.T L L L L P [ $.-.=.5.5.5.0.w.g.x.fXbXbXaX;.[ [ $.T T ;.;.*.*.&.%.&.%.*.:.u.g.g.g.g.g.w.8.=.%.[ { | } @.6XeXtXrXrXrXrXrXrXrXrXrXrX0X0X0X0X",
"0X0X0X0X0X0X0X0X0X0XrX8XyXeXeXeX1.w 3 r p G H ] ] X.{ { { { { { { X.U H F 8 7 7 q q 6 6 S L P P T Y Y Y #.$.:.:.g.sXf.L L L L U T #.-.=.=.5.y.y.w.g.x.dXbXbXgXa.*.P K T L L [ %.#.Y W W Y Y %.*.5.0.e.0.0.0.9.=.8.=.*.;.;...` OXeXeXtXrXrXrX0X0XrXrXrXrX0X0X0X0X",
"0X0X0X0X0X0X0X0XrXrXrXrX0XtX9XeXeX5XN 0 3 w r 7 p F F H H H H H A p t 7 6 2 4 4 q q 4 , t H L P P T Y Y #.&.:.w.c.fX$.L L L L T %.&.=.:.=.9.y.u.l.sXxXnXbXgXx.p.#.T Z S A A A L T T R T R R T W 4.0.5.0.0.0.9.8.e.6.8.8.;.;.} ` oXeXyXyXrXrX0X0XrXrXrXrX0X0X0X0X",
"0X0X0X0X0X0X0X8XrXrX0X0XtXtXqXqX0XtXuX5XB 0 @ 3 3 w r r r r r r r w w w 3 3 O @ 0 @ < > 7 A H L P T W #.%.*.q.j.gXh.P L T L T #.&.&.-.=.y.y.u.j.c.fXxXgXaXx.j.8.*.U S 9 8 6 9 Z U I K E K I R W =.=.5.8.9.9.e.w.e.p.w.w.q.;... .@.6XuXtXrXrXrXrXrXrXrXrXrX0X0X0X",
"0X0X0X0X0X0X8X8XrX0XqXqXqXGXGXGXGXrXtXtXeX&XB 0 @ @ @ @ 0 q 3 3 q 0 0 3 3 3 @ @ + # 0 < 4 t J L L P Y #.#.>.q.j.sX{ L L P P T #.&.-.9.y.y.u.j.j.c.v.v.x.x.f.e.-.T S A 4 1 1 , 2 S K K K K K T W ! &.=.5.q.q.p.h.k.a.f.f.w.:.;.| O.OX6X9XqXGXrXrXrXrXrXrXrX0X0X0X",
"0X0X0X0X0X0X0X8X0XqXqXqXGXGXGXGXGX0X0XqXqXqXJX9X/.v + + @ @ @ @ 0 * @ @ + @ + + # + $ @ 3 r F L L P T #.%.>.q.p.a.L D K L T T #.&.=.y.y.u.j.j.j.z.g.g.g.u.9.=.Y V 8 2 > O o > > Z T T Y Y T Y %.=.=.8.e.7.s.dXbXnXgXh.p.p.q.;.| } @.6X9XqXGXqXrXrXrXrXrXrXrX0X0X",
"0X0X0X0X0X0X0X0X0XqXqXqXqXGXGXGXGXGXGXtX0X0XGXqXtXtX$XN v ; & + & & + + + + + + = ; e e w w t J K P T Y &.>.:.;.[ J S L L T Y W &.=.9.y.u.j.j.j.j.u.u.0.9.=.%.T S 9 > > X X X o Z W =.=.-.-.=.q.a.p.p.p.aXbXMXLXLXmXgXh.q.q.:.;.} O.OXeXqXqXqXqXrXrXrXrXrXrX0X0X",
"0X0X0X0X0X0X0X0X0X0X0X0XqXqX0X0X0X0X0X0X0X0XqXqXqXqXqXqXqXtXwX|. XQ.Q.Q. X|.5X5XuXuXJXeX&Xe y F J K P Y %.:.p.j.[ S S L P P Y W ! -.-.9.9.y.u.y.0.0.5.4.e.%.T K S 8 > O X X X O S 8.5.5.9.8.p.aXxXbXbXbXMXLXLXLXLXmXxXh.p.w.:.;.|  .@.XXeXqXqX0X0X0X0X0X0X0X0X0X",
"0X0X0X0X0X0X0X0X0X0X0X0X0X0X0X0X0X0X0X0X0X0XqXqXqXqXqX0XqXqXtXqXJXtXtXtXtXtXtXtXtXtX0XqXeXb y F A D K T W #.:.w.L S S L P P Y W ! ! -.-.-.-.=.5.5.4.%.Y T D S V 9 , , O O X X > U 4.5.=.y.0.h.gXMXLXLXMXmXnXmXbXhXfXsXg.w.w.q.;.$.|  .@.6XqXqX0X0X0XrXtX0X0X0X0X",
"0X0X0X0X0X0X0X0X0X0X0X0X0X0X0X0X0X0X0X0X0X0X0X0X0X0X0X0X0X0X0X0XwX8X8XwXwX8X0XqX8X0XqXqXuX|.q r C S K I T #.-.8.D S J L L P T Q Q ! ! -.&.&.&.&.%.Y U H A 8 9 2 2 2 , 2 2 > o 2 { 4.&.5.y.w.x.bXMXLXMXbXfXx.sXx.g.f.g.g.u.w.q.;.*.|  .' XXeXqX0XtXtXrXrX0X0X0X0X",
"0X0X0X0X0X0X0X0X0X0X0X0X0X0X0X0X0X0X0X0X0X0X0X0X0X0XqX0XtXtXqX0X,X0XtX8X8X0XtXtX0XqXJXJXtXkXb q t A S K P #.#.T Z A S J L L P T T T T T T Y Y P L J A 8 9 2 2 2 , 2 ^ i.| A , 8 ;.%.&.5.y.u.c.xXmXmXxXdXa.w.w.u.9.y.y.y.f.w.q.q.;.;. .@.OXeXqX0XtXrXtXrX0X0X0X0X",
"0X0X0X0X0X0X0X0X0X0X0X0X0X0X0X0X0X0X0X0X0X0X0X0X0X0X0X0X0X0X0X0X8X8X8X8X0X0X0X0XtXqXqXtXtXeXOX0 q t A L [ [ [ D Z A p A A S K K L L L L K D S A 8 6 2 2 , 2 , 2 7 ..x.x.s.[ A A 6.Y ! 5.y.f.sXxXbXxXfXa.8.9.9.9.y.y.9.y.p.p.p.w.:.;...} o.6XqX0X0X0X0X0X0X0X0X0X",
"0X0X0X0X0X0X0X0X0X0X0X0X0X0X0X0X0X0X0X0X0X0X0X0XrXrXrXrX0X0XrXrX0X0X8X8XrXrXrXrXrXqXtXtX8XtXuXb 0 4 7 A A H D J 8 8 8 t t A A A A A A C 8 8 9 2 2 , , , , 2 2 J s.sXx.v.x.a.{ U ;.T ! 9.y.u.c.bXbXdXa.9.9.5.8.9.9.0.e.e.p.p.w.w.q.;...} ` OXeX0X0X0X0X0X0X0X0X0X",
"0X0X0X0X0X0X0X0X0X0X0X0X0X0X0X0X0X0X0X0X0X0XrXrXrXrXrXrXrXrXrXrXrXrXrXrXrXrXrXrXrXqXqXtXtX9XeXXX- < 4 6 6 7 9 F 7 2 6 4 6 6 6 6 6 6 2 2 , , , , 1 > > , , 8 ..fXfXv.v.b.x.x.a.K *.R W -.5.w.x.bXxXh.e.9.y.y.e.p.a.k.s.a.a.p.e.9.q.;...| ` o.uXtX0X0X0X0X0X0X0X0X",
"0X0X0X0X0X0X0X0X0X0X0X0X0X0X0X0X0X0X0X0X0X0XrXrXrXrXrXrXrXrXrXrX0X0X0X0XrXrXrXrXrXqXtXtXtX8XqXeX X- < > > , 7 F 6 , 3 < > > O O O O O > > > > > o > , 2 d i.fXfXv.v.v.c.v.c.g.K 4.R R ! 5.w.x.bXgXa.:.:.y.g.sXgXxXmXnXnXgXx.e.:.q.;.;.| ` o.6XtX0X0X0X0X0X0X0X0X",
"0X0X0X0X0X0X0X0X0X0X0X0X0X0X0X0X0X0X0X0X0X0X0X0X0X0X0X0X0X0X0X0X0X0X0X0X0X0X0X0XtXtXtXtXtXtXqXqX9X/.@ # > 6 t F q > < O # # # # X # @ O o O o > 3 4 7 H s.b.l.l.z.z.z.g.g.z.e.V { { R &.&.9.f.fXgXg.:.:.j.fXnXMXMXMXMXMXMXdXa.f.p.:...| ` ' |.tX0X0XrXrX8X8X8X8X",
"0X0X0X0X0X0X0X0X8X0X0X0X0X0X0X0X0X0X0X0X0X0X0X0X0X0X0X0X0X0X0X0X0X0X0X0X0X0X0X0XtXtXtXtXtXtX0XqX9XeXN @ q F ^ ^ a > O X # # # X # X # O O > > 4 7 _ pXgXfXfXl.r.r.r.u.y.y.y.w.V S ;.%.W -.8.p.c.bXaXq.:.q.fXbXhXpXpXpXhXMXbXx.f.p.q.;.} ` ' /.9XqX0X0X0X8X8X8X0X",
"0X0X0X0X0X0X0X0X8X8X0X0X0X0X0X0X0X0X0X0X0X0X0X0X0X0X0X0X0X0X0X0X0X0X0X0X0X0X0X0XrXrXrXrXrXtXrX0XtX9XuXb ~ _ } } ^ 4 > O X # # # # O > 1 , 2 p X.x.xXxXgXxXxXcXv.u.r.5.! 5.5.w.V 9 [ [ P -.*.q.p.nXgXa.;.q.w.a.x.a.s.s.s.nXmXdXa.p.p.;.| } ` o.eXqX0X0X0X8X8X0X0X",
"0X0X0X0X0X0X0X0X8X8X0X0X0X0X0X0X0X0X0X0X0X0X0X0X0X0X0X0X0X0X0X0X0X0X0X0X0X0X0X0XrXrXrXrXrXrXrX0XqXqXkXOX/ ^ ] ^ G ~ r > o O O O > 1 6 t H i.x.b.b.b.fXdXcXfXv.b.g.r.5.&.! &.8.V 9 C a.L P [ ;.p.bXbXs.;.:.q.p.a.h.aXs.i.dXmXdXh.a.e.;.} } O.o.eXqX0X0X0X0X0X0X0X",
"0X0X0X0X0X0X0X0X8X8X8X0X0X0X0X0X0X0X0X0X0X0X0X0X0X0X0X0X0X0X0X0X0X0X0X0X0X0X0X0X0X0X0X0XtXtXrX0X0XqXuXo.~ G H H ^ G ^ F t 6 4 2 8 X.i.i.a.x.x.x.b.v.fXfXfXx.a.t.4.4.=.! ! =.8.Z 9 9 ( i.) L T 7.sXgXh.$.#.q.a.fXbXbXhXi.d.fXv.r.e.e.;.] } ` o.6X9X0X0X0X0X0X0X0X",
"8X8X8X8X8X8X8X8X8X8XwX8X0X0X0X0X0X0X0X0X0X0X0X0X0X0X0X0X0X0X0X0X0X0X0X0X0X0X0X0X0X0X0X0XtXtXrX0X8XeXuXo.a F F A A A J J H ^ ] ] ;.p.p.e.g.x.c.c.b.v.cXcXcXfXx.g.r.0.0.5.5.5.q.S , 6 6 | ;.[ ..7.h.h.p.:.>.p.x.gXbXnXbXs.d.fXv.a.6.;.;.| } } o.6X9X0X0X0X0X0X0X0X",
"8X8X8X8X8X8X8X8X0X0X,XwX0X0X0X0X0X0X0X0X0X0X0X0X0X0X0X0X0X0X0X0X0X0X0X0X0X0X0X0X0X0X0X0XtXtXrX0XwXeXuXn r p A 8 6 6 t C J L [ [ *.e.w.f.g.c.c.v.v.fXxXxXxXfXv.b.v.c.z.z.l.u.p.U , 4 4 6 H X.7.fXh.h.j.:.#.p.sXxXxXgXbXgXd.dXx.7.%.%.{ | |  .o.6X9X0X0X0X0X0X8X8X",
"8X8X8X8X8X8X8X8X8X0X*XwX0X0X0X0X0X0X0X0X0X0X0X0X0X0X0X0X0X0X0X0X0X0X0X0X0X0X0X0X0X0X0X0XtXtXrX0XtX9XuXN q r t 7 2 4 7 8 S L L T *.0.u.g.g.c.c.v.dXcXxXxXfXfXv.c.z.z.z.l.u.u.w.{ 2 > 1 > > , 7 U U q.f.#.>.p.gXgXhXaXhXbXaXgXaX6.*.*.;.;.| } ' 6X9X0X0X0X8X8X8X0X",
"9XwXwXwX9X9X9X9X9X8X*X8X8X8X9X8X8X8X8X0XqXqXqX0XqXqX0X0X0X0X0X0X0X0X0X0X0X0X0X0X0X0X0X0X0X0X0XrXqXtXuXN 0 q q 4 3 3 4 r t A S L ;.e.u.l.l.z.c.c.fXfXfXv.c.z.l.g.u.0.5.0.5.0.u.7.2 O > < O > 2 A U { T K P %.aXgXgXs.pXbXnXxXfXp.4.8.q.:...} ' 5X9X0X0XqX0X0X0X0X",
"9XwX8X9X9X9X9X9XwX9X*XwX9X9X9X9X8XwX8X8X0XtXtXrXqXqX0X0XyXyX8X0X0X0X0X0X0X0X0X0X0XrXrXrXyXyXyXrXqXtXyX X$ 0 4 4 3 < 3 4 r 8 8 J ;.e.g.g.z.c.v.c.v.v.c.g.l.l.u.u.5.! ! ! ! ! 0.e.7 > o O O O , t A S V V S [ s.aXgXaXpXhXbXnXxXa.6.8.8.q...} ' 5X9X0XqX0X0X0X0X0X",
"8X9X5X9X8X8X8X8XwX9X8X9X9X8X8X9X8X8X8XtX0X0XtXrXqXqXqX0X0X0X9XqX0X0X0X0X0X0X0X0X0XrXrXrXyXyXrXrXqX9XyX5X0 3 3 4 < < < < 4 4 6 t [ 7.f.g.l.z.c.c.l.g.g.g.l.g.u.0.0.4.! &.! ! 4.8.A > X # @ @ > , , V L T [ ;.h.gXgXgXaXaXgXbXxXh.6.8.8.q.;.} ' 6X9X0X0X0X0X0X0X0X",
"wX9X5X9XwXwXwX9X8X9X8X9X9X8X9X9X8X8X*X*X0X0XtXrXqXqX0X0X0XqXqXqX0X0X0X0X0X0X0X0X0XrXyXyXyXyXrXrXqX8X9X7Xe 0 4 3 3 < < > > < 1 6 ] 6.r.r.g.z.z.z.g.f.g.l.l.l.u.u.0.0.0.y.5.! ! %.U > # X X o o > C U [ *.6.f.x.fXxXbXgXaXdXfXfXh.;.8.8.:.;. .' 6X9X0X0X8X0X0X8X0X",
"9X9X*XyX9X9X9X9XyX9X8X8X9X9X9X9XtX8X*X8X8X8X8X8X0X8X8X8X8X8X8X0X0X0X0X0X0X0X0X0X0XyXyXrXrXrXrXrX0X8XyX6Xe w q r 3 3 O O > 3 < > 8 ] 7.8.u.g.l.z.l.l.z.z.z.z.l.u.u.u.u.u.5.! ! Y U > X X X o 1 F ..;.:.w.p.x.dXxXbXnXxXaXfXh.h.h.8.8.q.q.;.} ' 6XyXtX8X8XyX8X8X8X",
"5X5X*X5X5X9X9XyX9X9XwX9X9X9X9X9X8X8X*X*X8X8X8X8X0X8X8X8X8X8X8X8X0X0X0X0X0X0X0X0X0XyXrXrXrXrXrXrX0X8XyX5Xe q 4 q q 3 O O 3 4 4 2 2 A { 7.u.u.g.l.l.z.z.z.c.l.u.u.u.u.r.4.5.! ! Y H , X X X 2 ^ ..;.p.p.j.f.aXgXbXnXbXxXsXx.a.p.f.e.e.e.q.;.} ' @X9X8X8X8X8X9X9X8X",
"5X6X5XuXuX7X|.|.8X8X9XwX9X9X9X9X0X8X*X*X8X8X8X8X0X8X8X8X8X8X8X8X0X0X0X0X0X0X0X0X0X8X8X8X8X8X8X8X8X9XyX5Xe 0 4 4 w 3 O > r r r 7 2 9 H 6.e.u.g.g.l.l.l.l.g.u.r.0.0.0.5.R R R R R D 2 X o 6 ( | | ;.;.p.j.h.fXxXbXbXxXfXsXa.j.8.e.w.w.e.q.;. .' +X5XyXyXyXyX9X5X5X",
"XXPXPXPXvXXXn N |.9X9X5X9X9XwX9XtXqX*X$X9X8X8X8X8X8X9X9X9X9X9XwX0X0X0X0X0X0X0X0X8X8X8X8X8X8X8X8X0X8XyX5Xe 0 3 4 4 3 > 4 p a p t 2 , d U 4.r.g.l.g.g.u.r.0.0.0.0.0.5.&.R I I I D A 2 o > J L [ [ [ :.:.w.h.sXxXfXdXx.g.p.q.8.T 8.w.e.8.:.7. .' +X5X5X9XyXyX5X5X5X",
"1.LXLXKXvX XB B  X5X5X9X5X8X5XwXqXtX*X$X8X8X8X9X8X5X*X*X5X5X5X9X8X0X0X8X8X9X8X8X8X8X8X8X,X,X,XwX,XwX8X9Xv * < 3 q < 3 3 a p A t 7 2 2 A T 4.e.r.w.0.8.4.*.4.5.0.0.4.! R R U K S 8 2 > A L T I P Y %.e.w.w.f.g.a.e.7.e.;.*.T { w.f.z.e.q.6.| ` .X7XeXeXuXuX5X5X5X",
"jXvXKXPXvXXXB v /.5X5X5X9XuX9X9X9X5X$X$X5X5X5X5X8X8X5X*X5X5X5X8XwXwXwXwX8X8X5X,X,X,X2X2X2X2X2X2X*X*X,X9XN * < < q 3 3 3 r t t t 6 2 , 9 Z U ! %.%.%.%.%.%.4.4.5.4.! ! Y Y T K S V 9 V L T T T T &.*.e.f.w.9.8.*.Y R U K R Y 6.8.a.g.w.;.6.X.^ 2.vXvXjX5X6X6X+X+X",
"vXvXvXkXvXvX6XXX+X7XuX7XuXPX7XuXvXvXPXPXPXPXeX5X5X5X5X5X5X5X5X8XwXwX,X,X8X8X,X,X2X*X*X2X*X*X*X2X,X,X2X*X5Xe @ 0 3 3 3 3 7 r t t 7 6 2 7 Z S K K K I T Y *.4.4.*.! ! R Y Y T K S Z S D L Y &.W =.%.%.&.8.=.&.%.T I I K R R ! 4.6.x.gXa.;.6.X.~ @.KXKXvXjXkXkXjX7X",
"vXvXjXkXkXkXPXPXjX7XkXvXvXvX7XvXKXKXLXLXKXKXkX6X6X5X5X5X5X5X5X5X5X,X,X,X,X*X*X*X*X*X*X*X*X*X*X*X*X*X*X$XwX|.; @ 3 3 3 3 4 7 7 t 7 6 6 7 V Z Z Z K R Y *.5.5.*.! R R R R T U K S [ L L T %.&.W W W &.Y T %.W W W ! ! ! Y Y Y Y s.gXxXs.{ *.] G O.KXPXvXkXkXkXkXjX",
"jXjX#X7X7X7XkXvXvXvXvXvXvXkXkXkXvXkXvXvXPXPXvXvXkXkXXX1.1.OX+X+X5X5X5X5X5X5X5X*X*X,X$X,X*X*X$X$X*X*X*X$X*X$X/.+ @ < 3 3 4 6 7 7 7 4 6 8 V Z K K W *.5.5.4.4.&.! R T U K Z S K P [ L Y #.=.W W T T W &.! ! W R I E E E R { i.gXmXMXnXs.[ { ] ~ o.vXkX@XoXOXXX+X+X",
"7XkXjX@X+XXX7XkX7XjXkXjXjX7X7X7XjX7X@X7XkXjXjX7XjXjX@XXXOX@XvX+X|.5X5X5X5X9X5X$X$X*X$X$X$X8X$X|.$X*X$X X).). XB # @ 3 3 4 4 7 7 7 6 6 8 Z K Y %.4.5.0.0.5.5.*.! ! R K Z S I T T Y T Y -.%.&.&.W &.&.&.! R I K E Z K Y *.a.gXgXhXhXaX..L [ | ` o.lXkXXXOXXX|.|.|.",
"jXjX7XOXOX<.+XjX@X@X@X@XXXXX+X@X6X@XXX7XvX7X7X7XjXjXjXkXkXjXvX@X+X+X@X+XuXkX XN |. XQ.Q. X XQ.N  X&X X).N N N N e @ 3 w 3 4 4 4 4 6 7 A L Y *.6.0.0.0.0.5.5.*.! R K K K Y Y T Y #.T I &.=.9.9.9.-.! Q R I I I I T &.9.u.z.w.p.q.;.U S L ] ] ` OX6X&X5X5X9X5X5X8X",
"7X@X+XXX+XOX+XXX X+X6X7XXXXXXX+X@X@X+XXX+X6X6X7X7XjX@XjX@XjX@X7X7XjX7X6XlXkXkX5XeXeX9X8XtXuX5XuXuX5X5XrX8X,X*X&Xn w y r 1 5 5 2 6 6 A ] %.=.8.t.0.w.w.y.0.5.&.Y ! 9.8.W T %.T #.! &.-.&.y.j.0.&.&.R I I I I W &.9.y.9.:.*.*.&.$.L A 8 J ^ / b N Q.Q.).Q.).Q.Q.).",
" X|.6X6X+XXXOXOXXX|.XXXXo. X X1.@X7X@XOXN N  X+XXXOXXXOXXXOX X1.1.OX X XXXXX6X6XeX9XwX8X,X*X*X*X*X$X$X%X%X%X%X|.N i s r 2 , 2 9 7 8 L { 8.0.0.y.u.f.u.u.u.8.! 5.j.y.=.W #.=.&.&.5.9.5.9.j.5.! R I R R I ! &.5.5.>.>.#.T L L L J p 6 6 r a b k m Y.S.S.S.Y.S.S.S.",
"b N <.<.N n n b o.N n b i n N n o.o.n o.n n n n o.<.o.o.N o.<.<.1.1.o.N o.o. X XQ.Q.M W.M M W.W.W.W.W.W.M M M M B b a 7 7 7 p A 8 A T *.5.5.0.y.u.f.g.w.5.=.w.u.y.y.=.&.=.:.9.y.u.5.y.=.! ! R R R Q W W %.#.&.#.P L S Z A 8 6 , < O @ @ - ; m c A.C.Z.Z.A.Z.Z.A.",
"i n N n n n b b n o.N b b o.1.o.n o.1.1.<.N v n OX<.1.OX<.<.<. X+X5X X X XQ.N N W.W.W.W.W.W.Y.Y.Y.Y.Y.Y.Y.S.S.M v s G G G J J J A H { 4.0.0.0.u.f.f.=.! %.8.w.w.y.9.=.-.=.y.y.9.5.=.! ! R R R R Q Q $.#.#.T P L A C 9 9 , > O O # & = v m M S.A.A.C.Z.Z.Z.M.M.Z.",
"n n n n N <.<.<.<.<.<.o.<.<.1.1.<.o.N n <. XN n  X X X|.N N <. X X|. X X X X).).(.`.`.`.E.E.E.T.R.L.J.J.J.J.J.Y.m b p 8 H H H D S U { 4.0.0.r.u.w.8.=.-.=.0.0.9.9.9.5.=.=.9.-.=.&.&.W W T R Y ! W #.[ P J S C 9 6 , > > O # # + % g M c S.S.G.C.D.C.C.V.N.n.n.N.",
"o.<.<.N <.1.<.N o.<.1.<.1.N <.o.v ; i e v v B N N N Q. X). X|. X%X%X%X%X%X'.'.'.(.`.{._.E.E.E.R.!.!.!.T.R.R.R.Y.m s ~ F F J S A H U *.*.=.u.u.g.f.8.8.u.8.8.9.8.w.w.5.&.Y %.9.T W T T W T T T U K D S C 6 2 > > > > 1 3 3 @ & : l x S.B.N.N.Z.Z.V.V.V.V.M.M.M.M.",
"1.OX<.b N  Xn - - v n b N N N n ; v l l v v N Q.).'.%X).).).).).(.(.(.(.(.(.(.(.{.E.E.E.E.E.R.R.L.R.R.T.T.T.L.Y.B b ~ F F H H H U U { 4.0.u.g.g.u.0.w.u.0.0.0.w.w.9.=.%.I E K T P P K L D S A A 8 7 2 , > o O > < 4 4 3 @ & : m c S.D.D.N.N.N.V.V.V.V.V.D.V.V.D.",
"OX1.N b i b v e v v v v v v v B B N Q.).).).).'.'.'.'.`.`.(.(.(.E.E.(.(.`._._._.E.E.R.T.R.J.J.J.J.G.A.A.J.J.P.Y.m b ~ F F H L U U { *.5.w.y.u.f.u.f.c.j.0.w.y.0.w.8.&.! T I E E L J S A 8 7 2 2 > > o o > 3 3 < 0 < @ @ & ; x S.S.N.M.M.M.M.M.n.V.V.V.V.F.D.D.F.",
"OX+X XN v v ; ; : l v m m m m M ).).Q.(.(.(.(.(.E.{._._.E.E.E.E.E.E.~._.~.~._._.E.R.L.J.J.G.G.H.J.A.G.H.P.P.P.Y.m b ~ F J H L L { { *.r.g.e.f.f.f.c.c.f.w.8.8.8.8.8.=.Y K K S Z A C 8 6 2 > > o o o < 3 q 3 < @ + & & & g x x Z.N.M.M.M.M.m.m.m.n.m.m.m.D.V.V.V.",
" Xo.v ; l l l l M W.W.Q.(.(.(.`.'.`.`.`.`.`.`.`.`.`._._._.E.E.R.E.R.~.R.T.T.T.J.A.G.Z.Z.N.C.G.A.G.G.D.D.D.G.A.M v b F F H H L [ ..{ { g.g.8.w.g.c.fXv.c.g.f.w.6.*.%.R K L S C t 2 1 > o o o o o < 3 3 < @ @ # + & : g l x B.N.m.M.V.M.F.V.m.m.m.m.M.M.M.M.M.n.M.",
"v v ; : : m W.E.`._.E.`.`.'.'.'.'.`.`.`.`.`.`._._._.~.E.R.T.T.T.T.T.R.T.B.A.A.B.N.G.C.G.C.A.A.A.D.D.D.V.V.A.S.M v s a F H H L [ { { *.g.f.8.w.z.c.fXfXsXc.f.p.;.U L S A t 7 7 4 @ @ # # @ @ @ @ * + + + & & = g l x c x B.C.D.D.F.F.F.M.M.n.n.n.M.M.M.M.V.D.n.z ",
"; ; : : g x W.Y.E.E.R.E.E.E._.`.`.`._.~.E.E.E.E.E.R.R.T.J.A.A.J.J.J.J.A.B.A.G.C.G.N.N.J.L.J.J.H.H.H.F.F.D.G.J.W.v b F H ^ ( ] X.{ ..;.f.f.9.0.l.c.x.h.a.p...[ H t 7 2 1 > O + + + + + & - = = & : : g l m M M Y.Z.N.N.Z.C.G.K.K.K.K.F.M.m.m.M.D.D.F.K.K.D.F.M.M.",
"g l g g l x Y.R.Y.T.R.R.R.E._._._._.~.R.R.T.T.T.J.J.J.A.J.J.J.L.L.!.J.J.J.L.L.J.J.L.H.L.L.J.L.!.L.K.K.K.K.L.T.W.v b ~ ^ ( ] X.{ ;.6.;.f.g.w.8.g.g.e.{ ] A t 7 , > > o o # + ; g g l m m l m m m M Y.Y.Y.T.B.N.A.C.F.H.K.D.H.K.K.I.K.F.M.m.M.V.M.D.F.F.V.F.F.V.D.",
"M Y.W.E.R.R.E.~._.E.E.~._._._.~.~.R.T.S.S.T.R.A.A.J.J.T.~.!.!.!.!.!.T.R.!.!.!.!.!.!.!.!.I.L.H.L.H.D.K.K.!.!.R.W.v s ~ ^ ] | { ;.;.7.7.a.z.f.8.w.a.[ A 2 > > > > 4 r y y e : W.Y.Y.Y.Y.S.S.B.x x x A.J.J.A.A.C.N.J.K.G.N.N.V.D.K.F.V.D.F.D.F.F.F.V.D.M.M.F.F.V.M.",
"{.{.E.E._._._.`._.~.E.~._._.~.~.R.R.T.L.L.R.!.G.J.R.R.J.L.L.L.P.R.!.T.!.T.L.L.L.J.J.J.L.I.J.L.K.G.H.U.F.H.A.S.M v s ~ H ] ] X...6.;.7.g.z.f.w.8.{ ] F 4 < a ` O.O.` / b v g Y.S.S.N.N.N.J.H.G.N.Z.H.H.C.N.D.H.P.P.P.F.V.D.K.F.V.M.m.z z m.m.M.M.V.D.D.D.D.M.n.n.",
"E.E.{._.~._.~.~.~.R.R.R.~.~.R.R.J.L.L.I.H.C.A.G.G.G.C.H.H.L.L.G.C.Z.G.D.N.N.C.H.H.C.N.N.G.D.L.!.I.I.!.K.F.N.B.M v s ~ F J ] X...{ ;.p.a.c.c.8.K A 7 4 O @ q a G  .O.` ' B v M T.L.D.N.N.H.N.N.V.C.K.L.H.D.F.K.U.F.D.D.F.F.K.K.V.V.m.m.m.m.m.m.n.M.M.M.M.M.n.M.F.",
"E.E.~.~.~.~.E.T.R.J.J.J.J.A.A.A.Z.Z.C.A.C.N.G.H.G.H.G.Z.D.K.L.G.C.V.H.G.D.D.D.H.D.D.C.N.N.V.V.K.K.D.F.D.N.x x m v s G F A H ;...;.{ w.g.c.c.c.h.[ 7 4 O X # o > 5 b @.o.o.m M A.N.N.N.N.D.F.V.N.n.D.K.H.K.F.K.K.D.V.V.F.K.K.F.F.F.M.M.n.M.n.m.m.z m.M.M.M.V.F.D.",
"_._._._.R.R.J.A.N.A.J.A.A.N.N.G.N.A.A.A.J.A.J.J.L.H.C.N.H.G.C.D.V.M.m.M.F.V.M.V.V.V.M.n.V.K.K.D.z m.n.V.N.B.% N y a F F 8 H ] { ;.{ 4.g.z.c.v.z.e...p @ @ @ @ @ $ $ e o. XQ.c N.H.K.K.F.F.K.D.F.F.C.V.D.D.F.F.F.M.z m.V.U.U.F.N.m.N.N.N.F.K.K.F.F.K.I.V.n.D.n.n.",
"J.J.R.R.J.A.N.A.A.J.R.J.G.N.N.Z.A.G.G.Z.Z.N.N.N.G.N.N.N.N.N.V.C.C.M.n.n.n.z z m.n.N.n.z z M.M.n.m.n.F.K.B.h % o.y a ~ _ G X.X.U e.4.6.w.c.c.sXz.6.s.~ @ $ $ $ $ + + + . : g h x m.M.M.M.F.K.F.D.F.D.N.M.m.H.K.F.V.M.D.D.F.K.K.D.D.H.N.C.F.H.H.D.D.K.D.D.V.D.n.n.",
"J.G.A.A.A.R.L.A.N.A.L.J.C.C.A.G.G.J.G.A.A.A.N.z N.C.G.C.N.G.H.K.H.D.V.V.N.N.C.H.K.K.D.N.N.M.n.M.V.F.K.L.S.% g o.y b ` ` _ _ ..{ a.a.a.a.z.c.c.h.p.3.q X . . . . .         % f N.C.G.D.N.F.F.F.V.D.z z M.F.D.M.m.n.n.V.M.m.V.F.D.H.F.V.D.F.V.n.z K.K.D.V.n.V.n.m.",
"R.L.J.A.J.L.J.A.A.Z.G.G.J.J.J.G.J.J.J.A.G.J.A.G.H.H.H.J.G.I.I.L.H.K.L.I.I.I.I.I.H.I.I.I.L.H.N.D.K.K.H.S.f % v B v n o./ a _ X.7.;.e.a.g.g.x.x.a...~ X . .                 % j C.H.L.L.J.K.N.V.D.M.m.m.D.D.D.V.D.M.m.M.M.m.m.m.M.N.N.M.D.F.V.m.z n.D.D.V.z z z z ",
"A.A.J.A.N.A.A.A.A.J.J.A.R.L.L.L.L.J.G.C.N.J.J.G.G.C.G.L.H.I.N.G.H.C.C.L.L.I.I.H.L.!.!.!.!.L.C.L.K.D.N.h j j m m g g g : * b _ d.p.6.h.h.a.6.7.{ H 6 X .                   % j x A.C.D.H.G.G.G.D.N.m.D.H.H.H.V.D.V.M.M.m.m.V.V.F.D.M.n.n.K.K.V.n.V.D.F.D.m.z m.V.",
"A.A.R.T.R.J.A.A.A.J.J.J.J.G.G.G.J.G.J.J.R.H.J.J.I.L.H.G.N.C.C.G.C.N.Z.G.H.H.G.G.A.I.I.!.I.!.L.L.N.J.J.h f h j j j f f f g e ~ pXa.6.x.x.p.a.a.] 8 +.v .                   % % h R.J.J.L.A.K.D.L.I.I.K.D.Z.F.F.K.K.K.F.F.M.M.M.V.F.n.m.V.V.F.n.z z z V.V.n.m.n.n.",
"A.J.R.R.J.J.J.R.J.A.A.G.G.G.A.Z.A.A.J.R.L.A.G.J.H.C.C.H.I.L.L.C.N.A.H.H.H.G.C.A.N.N.J.J.A.G.A.H.I.!.L.h f h f f f f h h f % 3 O...{ x.x.a.s.a.A J zX' .                   % % j S.L.R.!.L.!.A.G.I.!.L.H.H.L.H.K.D.V.M.m.m.M.M.K.D.n.n.F.M.n.z z z m.D.K.K.V.V.F.",
"A.J.T.J.J.A.A.J.G.A.A.G.G.G.A.A.A.G.G.G.A.A.N.G.H.H.H.J.G.I.I.I.H.L.L.G.J.G.A.G.Z.A.G.L.Z.G.G.J.L.L.A.h h h f f f h h h j % . o , 8 ] ;.{ ] U s.sXhXy .                   % % % x J.!.L.R.L.L.H.I.J.Z.C.n.M.z n.M.V.D.F.M.M.m.F.D.n.m.m.z z z z n.D.D.K.I.K.V.F."
};
